X:16
T:The Galway Rambler
R:reel
O:Irish
D:An Historic Recording of Irish Music
N:single reel
Z:Paul Stewart Cranford (P.S.C.), <http://www.cranfordpub.com>                     
L:1/8
Q:333
M:C|
K:G
G2 dG eGdG|dedB AGED|GFGA BABd|1gedB AGED:|2gedB  AGEB:|
||g2 bg agab|gabg agef|g2 bg agab|gedB AGEB|
gabg gabg|ga (3bag ~a2 ga|(3(bag) gf gabf|gedB AGED|]
